X:1
T:Lord Rendal
M:4/4
L:1/8
K:G
 D2| G2 GG G D3| B2 dc A3/2- B/2- cA| G2 GA G D3| c2 dc| A4| cB AB cB AB|\
 d2 GGG-F ED| G2 GGG-AB-c| d2 AA| G4||
